lib/healthicons/icons/outline/symbols/health.svg

<svg fill="none" height="48" viewBox="0 0 48 48" width="48" xmlns="http://www.w3.org/2000/svg"><g clip-rule="evenodd" fill="#333" fill-rule="evenodd"><path d="m13.8227 36.991c2.4483 2.2113 5.1303 4.037 8.1587 5.4766 1.6221.7711 3.546.7008 5.1011-.1863 2.6229-1.4962 4.9055-3.2969 7.1126-5.2903 4.6784-4.2256 7.4057-10.0412 7.5849-16.174l.2089-7.1511c.0243-.8324.0012-2.6659.0012-2.6659-1.0469-.1728-2.1054-.2995-3.1624-.4261-3.2696-.3915-6.5252-.78126-9.3822-2.52744l-2.0379-1.24554c-1.7473-1.06789-3.9894-1.0679-5.7366 0l-1.9515 1.19275c-3.2661 1.99619-7.2473 2.37453-11.10078 2.74073-.87289.0829-1.73922.1652-2.5892.2656 0 0-.02467 1.8445 0 2.6887l.20826 7.1283c.17918 6.1328 2.90644 11.9484 7.58492 16.174zm-5.80393-24.1891c.00076.3184.00362.6138.00989.8284l.20827 7.1283c.16277 5.5709 2.64007 10.8768 6.92627 14.7481 2.3116 2.0878 4.8326 3.8025 7.6769 5.1546 1.0335.4913 2.2667.4446 3.2514-.1172 2.4552-1.4005 4.6194-3.1013 6.763-5.0374 4.2863-3.8713 6.7635-9.1772 6.9263-14.7482l.2089-7.151c.0066-.2239.0095-.5381.0102-.8747-.4681-.0603-.9435-.1172-1.4295-.1754l-.0545-.0065c-1.0752-.1288-2.2024-.2646-3.3221-.4546-2.244-.3808-4.5917-.999-6.7913-2.34334l-2.0379-1.24553c-1.107-.67657-2.5436-.67657-3.6506 0l-1.9515 1.19275c-2.3186 1.41712-4.8799 2.08862-7.3466 2.48562-1.5298.2462-3.1775.4036-4.72122.5512-.2278.0217-.45334.0433-.67591.0649z"/><path d="m21.9988 32.9994.001-17.9995 4 .0002-.001 17.9995z"/><path d="m32.9998 25.9998h-18v-4h18z"/></g></svg>

<svg width="48" height="48" viewBox="0 0 48 48" fill="none" xmlns="http://www.w3.org/2000/svg">
<path d="M21.9994 21.9998L21.9998 14.9999L25.9998 15.0001L25.9994 21.9998H32.9998V25.9998H25.9992L25.9988 32.9996L21.9988 32.9994L21.9992 25.9998H14.9998V21.9998H21.9994Z" fill="#333333"/>
<path fill-rule="evenodd" clip-rule="evenodd" d="M13.8227 36.991C16.271 39.2023 18.953 41.028 21.9814 42.4676C23.6035 43.2387 25.5274 43.1684 27.0825 42.2813C29.7054 40.7851 31.988 38.9844 34.1951 36.991C38.8735 32.7654 41.6008 26.9498 41.78 20.817L41.9889 13.6659C42.0132 12.8335 41.9901 11 41.9901 11C40.9432 10.8272 39.8847 10.7005 38.8277 10.5739C35.5581 10.1824 32.3025 9.79264 29.4455 8.04646L27.4076 6.80092C25.6603 5.73303 23.4182 5.73302 21.671 6.80092L19.7195 7.99367C16.4534 9.98986 12.4722 10.3682 8.61872 10.7344C7.74583 10.8173 6.8795 10.8996 6.02952 11C6.02952 11 6.00485 12.8445 6.02952 13.6887L6.23778 20.817C6.41696 26.9498 9.14422 32.7654 13.8227 36.991ZM8.01877 12.8019C8.01953 13.1203 8.02239 13.4157 8.02866 13.6303L8.23693 20.7586C8.3997 26.3295 10.877 31.6354 15.1632 35.5067C17.4748 37.5945 19.9958 39.3092 22.8401 40.6613C23.8736 41.1526 25.1068 41.1059 26.0915 40.5441C28.5467 39.1436 30.7109 37.4428 32.8545 35.5067C37.1408 31.6354 39.618 26.3295 39.7808 20.7585L39.9897 13.6075C39.9963 13.3836 39.9992 13.0694 39.9999 12.7328C39.5318 12.6725 39.0564 12.6156 38.5704 12.5574L38.5159 12.5509C37.4407 12.4221 36.3135 12.2863 35.1938 12.0963C32.9498 11.7155 30.6021 11.0973 28.4025 9.75296L26.3646 8.50743C25.2576 7.83086 23.821 7.83086 22.714 8.50743L20.7625 9.70018C18.4439 11.1173 15.8826 11.7888 13.4159 12.1858C11.8861 12.432 10.2384 12.5894 8.69468 12.737C8.46688 12.7587 8.24134 12.7803 8.01877 12.8019Z" fill="#333333"/>
</svg>
